X:1390
T: Sunday Bells
S: B.Breathnach:"Ceol Rince na hEireann" IV/162 (gan ainm)
Z: B.Black
L: 1/8
M: 4/4
R: reel
K: G
dc|B2 BA BG G2|ABAF DFdc|B2 BA BG G2|ABAF GBdc|
B2 BA BG G2|ABAF DFdc|GBdB GBdB|cAFA BG G2 ||
GABc defd|c2 cA FAcA|GABc d2 ef|gfaf g2 ga|
b2 af gfed|fdcA AF F2|B2 B2 c2 c2|d2 eg fdcA  ||
